X: 33894
T: Red Knickers, The
R: jig
M: 6/8
K: Gmajor
D|:"G"GFG "Am"ABc|"G"BAG "D"FDD|"G"GFG "Am"ABc|"G"BAG "D"d2D|
"G"GFG "Am"ABc|"G/B"BAG "Am/C"A2B/c/|"G"dBG "D"AFD|1 "C"GF"D"A "G"G2D:|2 "C"GF"D"A "G"G2d||
|:"G"gfe dBG|"C"edc "G"B2G|"C"cBA "G/B"BGF|"Am"EFG "D"A2d|
"G"gfe dBG|"C"edc "G"B2B/c/|"G"dBG "D"AFD|1 "C"GF"D"A "G"G2d:|2 "C"GF"D"A "G"G3||

